.local/share/icons/Gruvbox-Plus-Dark/apps/16/lyx.svg

<svg xmlns="http://www.w3.org/2000/svg" width="16" height="16" version="1.1">
 <defs>
  <style id="current-color-scheme" type="text/css">
   .ColorScheme-Text { color:#ebdbb2; } .ColorScheme-Highlight { color:#458588; }
  </style>
  <linearGradient id="arrongin" x1="0%" x2="0%" y1="0%" y2="100%">
   <stop id="stop3" offset="0%" style="stop-color:#d79921"/>
   <stop id="stop5" offset="100%" style="stop-color:#b57614"/>
  </linearGradient>
  <linearGradient id="aurora" x1="0%" x2="0%" y1="0%" y2="100%">
   <stop id="stop8" offset="0%" style="stop-color:#83a598"/>
   <stop id="stop10" offset="100%" style="stop-color:#b16286"/>
  </linearGradient>
  <linearGradient id="fitdance" x1="0%" x2="0%" y1="0%" y2="100%">
   <stop id="stop13" offset="0%" style="stop-color:#8ec07c"/>
   <stop id="stop15" offset="100%" style="stop-color:#458588"/>
  </linearGradient>
  <linearGradient id="oomox" x1="0%" x2="0%" y1="0%" y2="100%">
   <stop id="stop18" offset="0%" style="stop-color:#458588"/>
   <stop id="stop20" offset="100%" style="stop-color:#928374"/>
  </linearGradient>
  <linearGradient id="rainblue" x1="0%" x2="0%" y1="0%" y2="100%">
   <stop id="stop23" offset="0%" style="stop-color:#b8bb26"/>
   <stop id="stop25" offset="100%" style="stop-color:#076678"/>
  </linearGradient>
  <linearGradient id="sunrise" x1="0%" x2="0%" y1="0%" y2="100%">
   <stop id="stop28" offset="0%" style="stop-color:#fe8019"/>
   <stop id="stop30" offset="100%" style="stop-color:#fabd2f"/>
  </linearGradient>
  <linearGradient id="telinkrin" x1="0%" x2="0%" y1="0%" y2="100%">
   <stop id="stop33" offset="0%" style="stop-color:#83a598"/>
   <stop id="stop35" offset="100%" style="stop-color:#83a598"/>
  </linearGradient>
  <linearGradient id="60spsycho" x1="0%" x2="0%" y1="0%" y2="100%">
   <stop id="stop38" offset="0%" style="stop-color:#fb4934"/>
   <stop id="stop40" offset="25%" style="stop-color:#fabd2f"/>
   <stop id="stop42" offset="50%" style="stop-color:#fe8019"/>
   <stop id="stop44" offset="100%" style="stop-color:#689d6a"/>
  </linearGradient>
  <linearGradient id="90ssummer" x1="0%" x2="0%" y1="0%" y2="100%">
   <stop id="stop47" offset="0%" style="stop-color:#b16286"/>
   <stop id="stop49" offset="20%" style="stop-color:#8ec07c"/>
   <stop id="stop51" offset="50%" style="stop-color:#fabd2f"/>
   <stop id="stop53" offset="100%" style="stop-color:#458588"/>
  </linearGradient>
  <linearGradient id="cyberneon" x1="0%" x2="0%" y1="0%" y2="100%">
   <stop id="stop56" offset="0" style="stop-color:#83a598"/>
   <stop id="stop58" offset="1" style="stop-color:#b16286"/>
  </linearGradient>
 </defs>
 <path fill="currentColor" class="ColorScheme-Text" d="M 10.101902,3.264915 12.245609,3.6945855 12.707795,5.1450137 13.649586,4.0267092 16,4.543475 13.895776,6.9972419 15.083757,10.649441 12.554507,10.391639 12.103934,8.4093482 10.95892,10.038612 8.989403,9.401074 10.965888,6.4816373 M 4.1306431,5.2379154 6.5855712,5.5839744 7.3148498,7.1737552 8.231093,5.7999709 10.70344,6.1286107 8.4377994,9.50675 7.8827116,12.735085 5.5880389,12.354188 5.98171,9.457976 M 2.4386703,11.178981 0,5.2866888 1.9637103,4.3263172 2.0124837,4.261286 3.5952969,8.2665117 4.746117,7.6196835 5.5996516,9.457976"/>
</svg>

<svg width="16" height="16" version="1.1" xmlns="http://www.w3.org/2000/svg">
  <defs>
    <style id="current-color-scheme" type="text/css">.ColorScheme-Text { color:#ebdbb2; } .ColorScheme-Highlight { color:#458588; }</style>
  </defs>
  <path class="ColorScheme-Text" d="m10.1 3.265 2.144 0.4297 0.4622 1.45 0.9418-1.118 2.35 0.5168-2.104 2.454 1.188 3.652-2.529-0.2578-0.4506-1.982-1.145 1.629-1.97-0.6375 1.976-2.919m-6.835-1.244 2.455 0.3461 0.7293 1.59 0.9162-1.374 2.472 0.3286-2.266 3.378-0.5551 3.228-2.295-0.3809 0.3937-2.896m-3.543 1.721-2.439-5.892 1.964-0.9604 0.04877-0.06503 1.583 4.005 1.151-0.6468 0.8535 1.838" fill="currentColor"/>
</svg>
